google-ads.svg

<svg fill="currentColor" viewBox="0 0 24 24"><path d="M12.25 1.47c-.7-.05-1.43.11-2.08.49a3.656 3.656 0 0 0-1.35 5l7.34 12.7c1.01 1.76 3.25 2.34 5.01 1.34 1.75-1 2.33-3.25 1.33-5L15.18 3.3a3.7 3.7 0 0 0-2.93-1.83M6.82 6.76 1.5 16a3.67 3.67 0 0 0-.5 1.83 3.67 3.67 0 0 0 3.67 3.67 3.67 3.67 0 0 0 3.17-1.84v.01L11 14.19c-1.35-2.3-2.73-4.59-3.97-6.96-.08-.15-.15-.31-.2-.47ZL16.4 5Z"/></svg>

<svg  viewBox="0 0 24 24" fill="currentColor"><path  d="M12.25 1.47C11.55 1.42 10.82 1.58 10.17 1.96C8.41 2.97 7.81 5.21 8.82 6.96L16.16 19.66C17.17 21.42 19.41 22 21.17 21C22.92 20 23.5 17.75 22.5 16L15.18 3.3C14.54 2.2 13.43 1.56 12.25 1.47M6.82 6.76L1.5 16A3.67 3.67 0 0 0 1 17.83A3.67 3.67 0 0 0 4.67 21.5A3.67 3.67 0 0 0 7.84 19.66V19.67L11 14.19C9.65 11.89 8.27 9.6 7.03 7.23C6.95 7.08 6.88 6.92 6.83 6.76ZL16.4 5Z"/></svg>
